Papirus/24x24/apps/org.gnome.DiskUtility.svg

<svg xmlns="http://www.w3.org/2000/svg" width="24" height="24" version="1.1">
 <rect style="opacity:0.2" width="15" height="20" x="4" y="2.5" rx="1.5" ry="1.626"/>
 <rect style="fill:#e4e4e4" width="15" height="20" x="4" y="2" rx="1.5" ry="1.626"/>
 <path style="fill:#ababab" d="M 5.5,3 C 5.2238576,3 5,3.2238576 5,3.5 5,3.7761424 5.2238576,4 5.5,4 5.7761424,4 6,3.7761424 6,3.5 6,3.2238576 5.7761424,3 5.5,3 Z m 2.027344,0 c -0.400111,0 -0.72168,0.3345 -0.72168,0.75 0,0.6213207 -0.484697,1.125 -1.083008,1.125 C 5.3225465,4.875 5,5.2095 5,5.625 v 2.0005 c 0,0.4155005 0.3225455,0.75 0.722656,0.75 0.598311,0 1.083008,0.503679 1.083008,1.125 -6e-4,0.276966 -0.099054,0.54401 -0.2773435,0.75 C 5.45904,11.486618 5.0025605,12.588378 5,14.25 5,14.2723 5.0027,14.28774 5.00295,14.30957 5.0010367,14.373029 5.0000533,14.436512 5,14.5 5,18.089851 7.9101491,21 11.5,21 15.089851,21 18,18.089851 18,14.5 18.000031,14.43391 17.999054,14.36782 17.9971,14.301758 17.997227,14.282732 18,14.269389 18,14.25 c -0.0028,-1.661779 -0.458623,-2.763559 -1.528321,-3.9995 -0.178224,-0.206016 -0.276907,-0.4730585 -0.277343,-0.75 0,-0.621321 0.484698,-1.125 1.083008,-1.125 C 17.677454,8.3755 18,8.0410005 18,7.6255 V 5.625 c 0,-0.4155 -0.322546,-0.75 -0.722656,-0.75 -0.59831,0 -1.083008,-0.5036793 -1.083008,-1.125 0,-0.4155 -0.321569,-0.75 -0.72168,-0.75 z M 17.5,3 C 17.223858,3 17,3.2238576 17,3.5 17,3.7761424 17.223858,4 17.5,4 17.776142,4 18,3.7761424 18,3.5 18,3.2238576 17.776142,3 17.5,3 Z m -12,6.0005 c -0.2761424,0 -0.5,0.2238576 -0.5,0.5 0,0.2761424 0.2238576,0.5 0.5,0.5 0.2761424,0 0.5,-0.2238576 0.5,-0.5 0,-0.2761424 -0.2238576,-0.5 -0.5,-0.5 z m 12,0 c -0.276142,0 -0.5,0.2238576 -0.5,0.5 0,0.2761424 0.223858,0.5 0.5,0.5 0.276142,0 0.5,-0.2238576 0.5,-0.5 0,-0.2761424 -0.223858,-0.5 -0.5,-0.5 z M 5.5,20 C 5.2238576,20 5,20.223858 5,20.5 5,20.776142 5.2238576,21 5.5,21 5.7761424,21 6,20.776142 6,20.5 6,20.223858 5.7761424,20 5.5,20 Z m 12,0 C 17.223858,20 17,20.223858 17,20.5 17,20.776142 17.223858,21 17.5,21 17.776142,21 18,20.776142 18,20.5 18,20.223858 17.776142,20 17.5,20 Z"/>
 <path style="opacity:0.1" d="m 11.617037,9.4999998 c -0.417361,0 -0.821889,0.095954 -1.194913,0.2258967 l 1.969995,1.9683655 c 0.404835,0.404492 0.404835,1.047555 0,1.452068 l -0.742785,0.74217 c -0.404836,0.404492 -1.048438,0.404492 -1.453275,0 L 8.2260662,11.920137 C 8.0960074,12.292835 8,12.697035 8,13.114056 c 0,1.995983 1.6194038,3.614034 3.617038,3.614034 0.417364,0 0.821892,-0.09596 1.194917,-0.225873 l 5.365722,5.372659 c 1.724719,1.728035 3.886566,-0.50056 2.228347,-2.161964 L 15.00801,14.307978 c 0.130056,-0.3727 0.226063,-0.7769 0.226063,-1.19392 0,-1.995984 -1.619403,-3.6140582 -3.617039,-3.6140582 z"/>
 <path style="opacity:0.1" d="M 5.5,3 C 5.2238576,3 5,3.2238576 5,3.5 5,3.5928949 5.0320373,3.6754706 5.0761719,3.75 5.1632333,3.6029807 5.3167525,3.5 5.5,3.5 5.6832475,3.5 5.8367667,3.6029807 5.9238281,3.75 5.9679627,3.6754706 6,3.5928949 6,3.5 6,3.2238576 5.7761424,3 5.5,3 Z m 2.0273438,0 c -0.400111,0 -0.7226563,0.3345 -0.7226563,0.75 0,0.6213207 -0.4837202,1.125 -1.0820313,1.125 C 5.3225468,4.875 5,5.2095 5,5.625 v 0.5 c 0,-0.4155 0.3225468,-0.75 0.7226562,-0.75 0.5983111,0 1.0820313,-0.5036793 1.0820313,-1.125 0,-0.4155 0.3225453,-0.75 0.7226563,-0.75 h 7.9453122 c 0.400111,0 0.722656,0.3345 0.722656,0.75 0,0.6213207 0.483722,1.125 1.082032,1.125 C 17.677454,5.375 18,5.7095 18,6.125 v -0.5 c 0,-0.4155 -0.322546,-0.75 -0.722656,-0.75 -0.59831,0 -1.082032,-0.5036793 -1.082032,-1.125 0,-0.4155 -0.322545,-0.75 -0.722656,-0.75 z M 17.5,3 C 17.223858,3 17,3.2238576 17,3.5 c 0,0.092895 0.03204,0.1754706 0.07617,0.25 C 17.163233,3.6029807 17.316753,3.5 17.5,3.5 c 0.183247,0 0.336767,0.1029807 0.423828,0.25 C 17.967963,3.6754706 18,3.5928949 18,3.5 18,3.2238576 17.776142,3 17.5,3 Z M 5.5,9 C 5.2238576,9 5,9.2238576 5,9.5 5,9.5928949 5.0320373,9.6754706 5.0761719,9.75 5.1633554,9.6034863 5.3171325,9.5 5.5,9.5 5.6828675,9.5 5.8366446,9.6034863 5.9238281,9.75 5.9679627,9.6754706 6,9.5928949 6,9.5 6,9.2238576 5.7761424,9 5.5,9 Z m 12,0 C 17.223858,9 17,9.2238576 17,9.5 c 0,0.092895 0.03204,0.1754706 0.07617,0.25 C 17.163355,9.6034863 17.317133,9.5 17.5,9.5 c 0.182867,0 0.336645,0.1034863 0.423828,0.25 C 17.967963,9.6754706 18,9.5928949 18,9.5 18,9.2238576 17.776142,9 17.5,9 Z M 6.7597656,9.7617188 C 6.7177075,9.9406506 6.6496296,10.110971 6.5292969,10.25 5.4600164,11.486118 5.0025605,12.588378 5,14.25 c 0,0.0223 0.00366,0.03676 0.00391,0.05859 C 5.0019929,14.372053 5.0000533,14.436512 5,14.5 c 0,0.05147 0.00662,0.101154 0.00781,0.152344 C 5.0292178,13.04885 5.4826742,11.959925 6.5292969,10.75 6.7075864,10.54401 6.8040875,10.276966 6.8046875,10 c 0,-0.084546 -0.027907,-0.1590648 -0.044922,-0.2382812 z m 9.4804684,0 C 16.22322,9.8409352 16.195312,9.9154544 16.195312,10 c 4.36e-4,0.276942 0.09717,0.543984 0.275391,0.75 1.047031,1.209752 1.499881,2.298702 1.521485,3.902344 C 17.993378,14.601154 18,14.551475 18,14.5 c 3.1e-5,-0.06609 1e-6,-0.131204 -0.002,-0.197266 C 17.998174,14.283708 18,14.269389 18,14.25 17.9972,12.588221 17.540401,11.485941 16.470703,10.25 16.350415,10.110954 16.282305,9.9406445 16.240234,9.7617188 Z M 5.5,20 C 5.2238576,20 5,20.223858 5,20.5 c 0,0.09289 0.032037,0.175471 0.076172,0.25 C 5.1632333,20.602981 5.3167525,20.5 5.5,20.5 c 0.1832475,0 0.3367667,0.102981 0.4238281,0.25 C 5.9679627,20.675471 6,20.592895 6,20.5 6,20.223858 5.7761424,20 5.5,20 Z m 12,0 c -0.276142,0 -0.5,0.223858 -0.5,0.5 0,0.09289 0.03204,0.175471 0.07617,0.25 0.08706,-0.147019 0.240581,-0.25 0.423828,-0.25 0.183247,0 0.336767,0.102981 0.423828,0.25 C 17.967963,20.675471 18,20.592895 18,20.5 18,20.223858 17.776142,20 17.5,20 Z"/>
 <path style="fill:#4f4f4f" d="m 11.617037,9 c -0.417361,0 -0.821889,0.095954 -1.194913,0.2258967 l 1.969995,1.9683663 c 0.404835,0.404491 0.404835,1.047554 0,1.452068 l -0.742785,0.74217 c -0.404836,0.404492 -1.048438,0.404492 -1.453275,0 L 8.2260662,11.420137 C 8.0960074,11.792836 8,12.197035 8,12.614056 c 0,1.995984 1.6194038,3.614035 3.617038,3.614035 0.417364,0 0.821892,-0.09596 1.194917,-0.225874 l 5.365722,5.37266 c 1.724719,1.728035 3.886566,-0.50056 2.228347,-2.161965 L 15.00801,13.807978 c 0.130056,-0.372699 0.226063,-0.776899 0.226063,-1.19392 C 15.234073,10.618075 13.61467,9 11.617034,9 Z"/>
 <path style="opacity:0.2;fill:#ffffff" d="M 5.5,2 C 4.669,2 4,2.7249655 4,3.6259765 v 0.5 C 4,3.2249655 4.669,2.5 5.5,2.5 h 12 c 0.831,0 1.5,0.7249655 1.5,1.6259765 v -0.5 C 19,2.7249655 18.331,2 17.5,2 Z"/>
</svg>

<svg xmlns="http://www.w3.org/2000/svg" width="24" height="24" version="1.1">
 <rect style="opacity:0.2" width="15" height="20" x="4" y="2.5" rx="1.5" ry="1.626"/>
 <rect style="fill:#e4e4e4" width="15" height="20" x="4" y="2" rx="1.5" ry="1.626"/>
 <path style="fill:#ababab" d="M 5.5,3 C 5.2238576,3 5,3.2238576 5,3.5 5,3.7761424 5.2238576,4 5.5,4 5.7761424,4 6,3.7761424 6,3.5 6,3.2238576 5.7761424,3 5.5,3 Z m 2.027344,0 c -0.400111,0 -0.72168,0.3345 -0.72168,0.75 0,0.6213207 -0.484697,1.125 -1.083008,1.125 C 5.3225465,4.875 5,5.2095 5,5.625 v 2.0005 c 0,0.4155005 0.3225455,0.75 0.722656,0.75 0.598311,0 1.083008,0.503679 1.083008,1.125 -6e-4,0.276966 -0.099054,0.54401 -0.2773435,0.75 C 5.45904,11.486618 5.0025605,12.588378 5,14.25 5,14.2723 5.0027,14.28774 5.00295,14.30957 5.0010367,14.373029 5.0000533,14.436512 5,14.5 c 0,3.589851 2.9101491,6.5 6.5,6.5 3.589851,0 6.5,-2.910149 6.5,-6.5 3.1e-5,-0.06609 -9.46e-4,-0.13218 -0.0029,-0.198242 C 17.997227,14.282732 18,14.269389 18,14.25 c -0.0028,-1.661779 -0.458623,-2.763559 -1.528321,-3.9995 -0.178224,-0.206016 -0.276907,-0.4730585 -0.277343,-0.75 0,-0.621321 0.484698,-1.125 1.083008,-1.125 C 17.677454,8.3755 18,8.0410005 18,7.6255 V 5.625 c 0,-0.4155 -0.322546,-0.75 -0.722656,-0.75 -0.59831,0 -1.083008,-0.5036793 -1.083008,-1.125 0,-0.4155 -0.321569,-0.75 -0.72168,-0.75 z M 17.5,3 C 17.223858,3 17,3.2238576 17,3.5 17,3.7761424 17.223858,4 17.5,4 17.776142,4 18,3.7761424 18,3.5 18,3.2238576 17.776142,3 17.5,3 Z m -12,6.0005 c -0.2761424,0 -0.5,0.2238576 -0.5,0.5 0,0.2761424 0.2238576,0.5 0.5,0.5 0.2761424,0 0.5,-0.2238576 0.5,-0.5 0,-0.2761424 -0.2238576,-0.5 -0.5,-0.5 z m 12,0 c -0.276142,0 -0.5,0.2238576 -0.5,0.5 0,0.2761424 0.223858,0.5 0.5,0.5 0.276142,0 0.5,-0.2238576 0.5,-0.5 0,-0.2761424 -0.223858,-0.5 -0.5,-0.5 z M 11.473633,13 h 0.001 c 0.0085,-7.2e-5 0.01693,-7.2e-5 0.02539,0 0.828427,0 1.5,0.671573 1.5,1.5 0,0.828427 -0.671573,1.5 -1.5,1.5 -0.828427,0 -1.5,-0.671573 -1.5,-1.5 -1.266e-4,-0.818238 0.655521,-1.485617 1.473633,-1.5 z M 5.5,20 C 5.2238576,20 5,20.223858 5,20.5 5,20.776142 5.2238576,21 5.5,21 5.7761424,21 6,20.776142 6,20.5 6,20.223858 5.7761424,20 5.5,20 Z m 12,0 C 17.223858,20 17,20.223858 17,20.5 17,20.776142 17.223858,21 17.5,21 17.776142,21 18,20.776142 18,20.5 18,20.223858 17.776142,20 17.5,20 Z"/>
 <path style="opacity:0.1" d="m 11.617037,9.4999998 c -0.417361,0 -0.821889,0.095954 -1.194913,0.2258967 l 1.969995,1.9683655 c 0.404835,0.404492 0.404835,1.047555 0,1.452068 l -0.742785,0.74217 c -0.404836,0.404492 -1.048438,0.404492 -1.453275,0 L 8.2260662,11.920137 C 8.0960074,12.292835 8,12.697035 8,13.114056 c 0,1.995983 1.6194038,3.614034 3.617038,3.614034 0.417364,0 0.821892,-0.09596 1.194917,-0.225873 l 5.365722,5.372659 c 1.724719,1.728035 3.886566,-0.50056 2.228347,-2.161964 L 15.00801,14.307978 c 0.130056,-0.3727 0.226063,-0.7769 0.226063,-1.19392 0,-1.995984 -1.619403,-3.6140582 -3.617039,-3.6140582 z"/>
 <path style="opacity:0.1" d="M 5.5 3 C 5.2238576 3 5 3.2238576 5 3.5 C 5 3.5928949 5.0320373 3.6754706 5.0761719 3.75 C 5.1632333 3.6029807 5.3167525 3.5 5.5 3.5 C 5.6832475 3.5 5.8367667 3.6029807 5.9238281 3.75 C 5.9679627 3.6754706 6 3.5928949 6 3.5 C 6 3.2238576 5.7761424 3 5.5 3 z M 7.5273438 3 C 7.1272328 3 6.8046875 3.3345 6.8046875 3.75 C 6.8046875 4.3713207 6.3209673 4.875 5.7226562 4.875 C 5.3225468 4.875 5 5.2095 5 5.625 L 5 6.125 C 5 5.7095 5.3225468 5.375 5.7226562 5.375 C 6.3209673 5.375 6.8046875 4.8713207 6.8046875 4.25 C 6.8046875 3.8345 7.1272328 3.5 7.5273438 3.5 L 15.472656 3.5 C 15.872767 3.5 16.195312 3.8345 16.195312 4.25 C 16.195312 4.8713207 16.679034 5.375 17.277344 5.375 C 17.677454 5.375 18 5.7095 18 6.125 L 18 5.625 C 18 5.2095 17.677454 4.875 17.277344 4.875 C 16.679034 4.875 16.195312 4.3713207 16.195312 3.75 C 16.195312 3.3345 15.872767 3 15.472656 3 L 7.5273438 3 z M 17.5 3 C 17.223858 3 17 3.2238576 17 3.5 C 17 3.5928949 17.032037 3.6754706 17.076172 3.75 C 17.163233 3.6029807 17.316753 3.5 17.5 3.5 C 17.683247 3.5 17.836767 3.6029807 17.923828 3.75 C 17.967963 3.6754706 18 3.5928949 18 3.5 C 18 3.2238576 17.776142 3 17.5 3 z M 5.5 9 C 5.2238576 9 5 9.2238576 5 9.5 C 5 9.5928949 5.0320373 9.6754706 5.0761719 9.75 C 5.1633554 9.6034863 5.3171325 9.5 5.5 9.5 C 5.6828675 9.5 5.8366446 9.6034863 5.9238281 9.75 C 5.9679627 9.6754706 6 9.5928949 6 9.5 C 6 9.2238576 5.7761424 9 5.5 9 z M 17.5 9 C 17.223858 9 17 9.2238576 17 9.5 C 17 9.5928949 17.032037 9.6754706 17.076172 9.75 C 17.163355 9.6034863 17.317133 9.5 17.5 9.5 C 17.682867 9.5 17.836645 9.6034863 17.923828 9.75 C 17.967963 9.6754706 18 9.5928949 18 9.5 C 18 9.2238576 17.776142 9 17.5 9 z M 6.7597656 9.7617188 C 6.7177075 9.9406506 6.6496296 10.110971 6.5292969 10.25 C 5.4600164 11.486118 5.0025605 12.588378 5 14.25 C 5 14.2723 5.0036563 14.286764 5.0039062 14.308594 C 5.0019929 14.372053 5.0000533 14.436512 5 14.5 C 5 14.551475 5.0066224 14.601154 5.0078125 14.652344 C 5.0292178 13.04885 5.4826742 11.959925 6.5292969 10.75 C 6.7075864 10.54401 6.8040875 10.276966 6.8046875 10 C 6.8046875 9.9154544 6.7767801 9.8409352 6.7597656 9.7617188 z M 16.240234 9.7617188 C 16.22322 9.8409352 16.195312 9.9154544 16.195312 10 C 16.195748 10.276942 16.292479 10.543984 16.470703 10.75 C 17.517734 11.959752 17.970584 13.048702 17.992188 14.652344 C 17.993378 14.601154 18 14.551475 18 14.5 C 18.000031 14.43391 18.000001 14.368796 17.998047 14.302734 C 17.998174 14.283708 18 14.269389 18 14.25 C 17.9972 12.588221 17.540401 11.485941 16.470703 10.25 C 16.350415 10.110954 16.282305 9.9406445 16.240234 9.7617188 z M 10.025391 14.744141 C 10.010982 14.827651 9.9999864 14.912417 10 15 C 10 15.828427 10.671573 16.5 11.5 16.5 C 12.328427 16.5 13 15.828427 13 15 C 13 14.914499 12.988351 14.831593 12.974609 14.75 C 12.85521 15.458974 12.242926 16 11.5 16 C 10.75509 16 10.142444 15.455908 10.025391 14.744141 z M 5.5 20 C 5.2238576 20 5 20.223858 5 20.5 C 5 20.592895 5.0320373 20.675471 5.0761719 20.75 C 5.1632333 20.602981 5.3167525 20.5 5.5 20.5 C 5.6832475 20.5 5.8367667 20.602981 5.9238281 20.75 C 5.9679627 20.675471 6 20.592895 6 20.5 C 6 20.223858 5.7761424 20 5.5 20 z M 17.5 20 C 17.223858 20 17 20.223858 17 20.5 C 17 20.592895 17.032037 20.675471 17.076172 20.75 C 17.163233 20.602981 17.316753 20.5 17.5 20.5 C 17.683247 20.5 17.836767 20.602981 17.923828 20.75 C 17.967963 20.675471 18 20.592895 18 20.5 C 18 20.223858 17.776142 20 17.5 20 z"/>
 <path style="fill:#4f4f4f" d="m 11.617037,9 c -0.417361,0 -0.821889,0.095954 -1.194913,0.2258967 l 1.969995,1.9683663 c 0.404835,0.404491 0.404835,1.047554 0,1.452068 l -0.742785,0.74217 c -0.404836,0.404492 -1.048438,0.404492 -1.453275,0 L 8.2260662,11.420137 C 8.0960074,11.792836 8,12.197035 8,12.614056 c 0,1.995984 1.6194038,3.614035 3.617038,3.614035 0.417364,0 0.821892,-0.09596 1.194917,-0.225874 l 5.365722,5.37266 c 1.724719,1.728035 3.886566,-0.50056 2.228347,-2.161965 L 15.00801,13.807978 c 0.130056,-0.372699 0.226063,-0.776899 0.226063,-1.19392 C 15.234073,10.618075 13.61467,9 11.617034,9 Z"/>
 <path style="opacity:0.2;fill:#ffffff" d="M 5.5,2 C 4.669,2 4,2.7249655 4,3.6259765 v 0.5 C 4,3.2249655 4.669,2.5 5.5,2.5 h 12 c 0.831,0 1.5,0.7249655 1.5,1.6259765 v -0.5 C 19,2.7249655 18.331,2 17.5,2 Z"/>
</svg>
